source/img/text-intro-form.svg

<svg width="229" height="39" viewBox="0 0 229 39" fill="none" xmlns="http://www.w3.org/2000/svg">
<path d="M27.3156 26.6366C27.3156 26.8879 27.2655 27.0889 27.2655 27.2899C27.0149 29.3003 26.3633 31.2603 25.3108 33.0696C24.2583 34.8789 22.8048 36.2861 21.0506 37.2912C20.399 37.5928 19.6973 37.8441 18.9956 38.0954C18.2939 38.2964 17.5923 38.4974 16.8906 38.6482C16.2891 38.7487 15.7378 38.8492 15.1364 38.8995C14.5349 38.9497 13.9836 39 13.4323 39C13.332 39 13.2318 39 13.1315 39C13.0313 39 12.9311 39 12.8308 39C10.5253 38.8995 8.21974 38.3969 5.96432 37.442C3.75903 36.4369 1.75421 35.1804 0 33.5722L4.6612 26.0838C4.71132 26.134 4.71132 26.134 4.76144 26.1843C4.76144 26.1843 4.81156 26.2345 4.86168 26.2848C5.9142 27.4407 7.11709 28.5464 8.42022 29.5013C9.72335 30.4562 11.2771 31.009 12.9812 31.1095C13.0313 31.1095 13.0814 31.1095 13.1315 31.1598C13.1817 31.1598 13.2318 31.21 13.2819 31.21C13.332 31.21 13.3821 31.2101 13.4323 31.2603C13.4824 31.2603 13.5325 31.3106 13.5826 31.3106C13.733 31.3106 13.8833 31.3106 14.0838 31.2603C14.2342 31.2603 14.4347 31.2101 14.585 31.1598C15.1865 31.0593 15.7879 30.808 16.3392 30.4562C16.8906 30.1044 17.3417 29.7023 17.6424 29.1495C17.6925 29.049 17.7426 28.9987 17.7426 28.8982C17.7927 28.7977 17.8429 28.7474 17.8429 28.6469C17.9431 28.3956 17.9932 28.1443 17.9932 27.893C18.0433 27.6418 18.0433 27.4407 18.0433 27.2397C18.0433 26.1843 17.5923 25.2796 16.6901 24.576C15.7879 23.8724 14.7855 23.3196 13.733 22.9175C13.2819 22.7668 12.8809 22.616 12.5301 22.5155C12.1291 22.4149 11.7783 22.3144 11.4274 22.2642C11.3773 22.2642 11.3272 22.2642 11.3272 22.2139C11.2771 22.2139 11.227 22.1637 11.227 22.1637C9.32239 21.7113 7.51806 20.9575 5.86408 19.9021C4.21011 18.8466 3.05734 17.3892 2.40578 15.4291C2.30554 15.0271 2.2053 14.625 2.10506 14.2229C2.00482 13.7706 1.95469 13.3686 1.90457 12.866C1.85445 12.7152 1.85445 12.5644 1.85445 12.4137C1.85445 12.2629 1.85445 12.1121 1.85445 11.9613C1.85445 11.6598 1.85445 11.3582 1.90457 11.0064C1.90457 10.7049 1.95469 10.4034 2.05494 10.0515C2.15518 9.29768 2.35566 8.49356 2.65638 7.73969C2.90698 6.98582 3.25782 6.28222 3.70891 5.62887C4.96192 3.5683 6.56577 2.11082 8.52046 1.20619C10.3749 0.45232 12.4299 0 14.5349 0C15.0361 0 15.5373 0.0502577 16.0886 0.100515C16.5898 0.150773 17.1412 0.251289 17.6925 0.301546C19.0959 0.552835 20.4992 0.904639 21.8525 1.45747C23.2057 2.01031 24.5089 2.66366 25.6616 3.36727L22.4539 10.5541C21.4014 9.80026 20.2988 9.09665 19.146 8.49356C17.9932 7.89046 16.7402 7.63917 15.387 7.63917C15.2867 7.63917 15.2366 7.63917 15.1364 7.63917C15.0361 7.63917 14.986 7.63917 14.8858 7.63917C13.9836 7.73969 13.1817 8.14175 12.3797 8.84536C11.6279 9.54897 11.227 10.2526 11.227 11.0567C11.227 11.1572 11.227 11.308 11.2771 11.4085C11.2771 11.509 11.3272 11.6598 11.4274 11.7603C11.5277 12.0116 11.6279 12.2629 11.8284 12.5142C12.0289 12.7655 12.2294 12.9665 12.48 13.1675C12.9311 13.5193 13.5325 13.8209 14.3344 14.1224C15.1364 14.424 15.9884 14.6753 16.8906 14.9768C17.6424 15.1778 18.3441 15.3789 19.0457 15.5296C19.7474 15.6804 20.3489 15.8814 20.8 16.0322C22.9551 16.7861 24.6091 18.0928 25.7118 19.9021C26.8144 21.7113 27.3657 23.6211 27.4158 25.6314C27.4158 25.732 27.4158 25.7822 27.4158 25.7822C27.4158 25.8325 27.4158 25.8827 27.4158 25.8827C27.3657 26.134 27.3657 26.3853 27.3156 26.6366ZM57.3878 29.7526V38.0954H34.6332V0.904639H57.3878V9.04639H44.6071V15.5296H56.636V23.4704H44.6071V29.7526H57.3878ZM95.78 28.2951C94.5772 30.8582 92.8731 32.9691 90.6176 34.5773C88.8133 35.8338 86.8085 36.6881 84.7034 37.1405C82.5483 37.5928 80.3931 37.8943 78.2379 37.9948C77.6365 38.0451 76.9849 38.0451 76.3835 38.0451C75.782 38.0451 75.1806 38.0451 74.6292 38.0451H64.4548V0.854381H75.2808C75.8823 0.854381 76.4336 0.854381 77.035 0.854381C77.6365 0.854381 78.2379 0.854381 78.7892 0.904639C80.8943 1.00515 82.9492 1.3067 85.0042 1.75902C87.0591 2.21134 88.9136 3.06572 90.6176 4.32217C92.7728 5.8299 94.4769 7.84021 95.6798 10.3531C96.8827 12.866 97.5844 15.4291 97.7347 18.0425C97.7849 18.2938 97.7849 18.4948 97.7849 18.7461C97.7849 18.9974 97.7849 19.1985 97.7849 19.4497C97.7849 19.5503 97.7849 19.701 97.7849 19.8518C97.7849 20.0026 97.7849 20.1031 97.7849 20.2539C97.6345 23.0683 96.9829 25.732 95.78 28.2951ZM87.5603 19.0979C87.5603 18.9472 87.5603 18.7964 87.5102 18.6456C87.4099 17.1881 87.0591 15.7307 86.4577 14.3737C85.8562 13.0168 85.0042 11.9111 83.9015 11.0567C83.0996 10.4034 82.1974 9.95103 81.195 9.69974C80.1926 9.44845 79.1902 9.34794 78.1377 9.29768C77.9372 9.29768 77.7367 9.29768 77.5362 9.29768C77.3357 9.29768 77.1353 9.29768 76.9348 9.29768H74.3786V29.8028C74.4789 29.8028 74.6292 29.8028 74.7796 29.8531C74.93 29.8531 75.0302 29.9033 75.1806 29.9033C75.3309 29.9033 75.4813 29.9033 75.5815 29.9536C75.6818 29.9536 75.8321 30.0039 75.9324 30.0039C76.3333 30.0039 76.7343 30.0039 77.1353 29.9536C77.5863 29.9536 77.9873 29.9034 78.3382 29.8531C79.3406 29.7526 80.343 29.6018 81.2953 29.3505C82.2475 29.0992 83.1497 28.6469 83.9015 28.1443C85.1545 27.2397 86.0567 26.0335 86.6581 24.4755C87.2596 22.9175 87.5603 21.3093 87.5603 19.6508C87.5603 19.3995 87.5603 19.2487 87.5603 19.0979ZM142.492 21.058C142.492 21.4601 142.442 21.8621 142.342 22.2642C142.242 23.0683 142.141 23.8724 141.891 24.6765C141.69 25.4807 141.39 26.2848 141.089 27.0387C139.435 30.808 136.929 33.7229 133.471 35.8338C130.012 37.8943 126.404 38.9497 122.594 38.9497C122.344 38.9497 122.043 38.9497 121.793 38.8995C121.542 38.8995 121.291 38.8492 120.991 38.8492C119.687 38.7487 118.384 38.4974 117.081 38.1456C115.778 37.7938 114.525 37.2912 113.322 36.6881C110.064 34.9794 107.508 32.5168 105.654 29.3505C103.799 26.1843 102.847 22.8673 102.847 19.4497C102.847 18.9472 102.847 18.4446 102.897 17.942C102.947 17.4394 102.997 16.8866 103.148 16.384C103.348 15.3789 103.599 14.3737 103.95 13.3183C104.301 12.3131 104.701 11.308 105.253 10.3531C107.057 7.03608 109.513 4.5232 112.721 2.76418C115.878 1.00515 119.236 0.150773 122.695 0.150773C123.146 0.150773 123.647 0.150773 124.098 0.201031C124.599 0.251289 125.05 0.301546 125.501 0.301546C126.955 0.502577 128.358 0.854381 129.762 1.35696C131.165 1.85954 132.518 2.51289 133.821 3.31701C136.578 5.12629 138.733 7.4884 140.237 10.4536C141.74 13.4188 142.492 16.5348 142.492 19.7513C142.492 20.2539 142.492 20.6559 142.492 21.058ZM132.368 18.9472C132.368 18.6959 132.318 18.4948 132.318 18.2436C132.117 16.5851 131.616 14.9768 130.814 13.4188C130.012 11.8608 128.859 10.6546 127.456 9.80026C127.055 9.59923 126.704 9.44845 126.303 9.29768C125.902 9.14691 125.552 8.99613 125.151 8.89562C124.75 8.7951 124.399 8.74484 123.998 8.69459C123.597 8.64433 123.246 8.59407 122.845 8.59407C120.89 8.59407 119.036 9.19716 117.382 10.4536C115.728 11.7101 114.525 13.3686 113.873 15.4291C113.823 15.5296 113.823 15.5799 113.773 15.6804C113.773 15.7809 113.723 15.8312 113.723 15.9317C113.623 16.2835 113.523 16.6353 113.422 16.9871C113.322 17.3389 113.272 17.741 113.172 18.143C113.122 18.3943 113.122 18.6959 113.072 18.9472C113.072 19.1985 113.021 19.4497 113.021 19.7513C113.021 19.9021 113.021 20.0528 113.021 20.2036C113.021 20.3544 113.021 20.5052 113.072 20.6559C113.172 22.7165 113.823 24.6765 114.976 26.5361C116.129 28.3956 117.683 29.6018 119.738 30.2049C119.988 30.3054 120.189 30.3557 120.439 30.4059C120.69 30.4562 120.94 30.5064 121.191 30.5567C121.442 30.607 121.642 30.607 121.893 30.6572C122.143 30.6572 122.344 30.7075 122.594 30.7075C124.649 30.7075 126.504 30.1044 128.158 28.8479C129.812 27.6418 131.015 25.9832 131.716 23.9227C131.817 23.5206 131.917 23.1186 132.017 22.7165C132.117 22.2642 132.167 21.8621 132.218 21.4098C132.268 21.1585 132.268 20.857 132.318 20.6057C132.318 20.3544 132.368 20.1031 132.368 19.8518C132.368 19.4497 132.368 19.1985 132.368 18.9472ZM176.223 38.0954L162.139 18.8969C161.738 18.4446 161.388 17.8918 161.037 17.2384C160.686 16.5851 160.335 15.9317 160.034 15.2281C159.784 14.7255 159.583 14.2229 159.383 13.7204C159.182 13.2178 158.982 12.7655 158.781 12.3634C158.982 13.5696 159.132 14.7758 159.232 16.0322C159.333 17.2887 159.383 18.5451 159.383 19.7513V38.0954H149.609V0.904639H159.383L173.366 20.0026C173.717 20.5554 174.068 21.1082 174.369 21.7113C174.72 22.3144 175.02 22.9175 175.321 23.5709C175.572 24.0735 175.772 24.576 176.023 25.0786C176.273 25.5812 176.474 26.0838 176.724 26.5361C176.674 26.0838 176.624 25.6817 176.574 25.3299C176.524 24.9278 176.474 24.5258 176.424 24.1237C176.323 23.3698 176.273 22.5657 176.273 21.7113C176.223 20.9072 176.223 20.0528 176.223 19.1985V0.954897H185.947V38.1456H176.223V38.0954ZM218.876 38.0954L217.021 31.4111H202.687L200.782 38.1456H190.758L203.489 0.954897H216.119L229 38.1456H218.876V38.0954ZM211.107 11.9111C210.907 11.308 210.706 10.7049 210.556 10.0515C210.405 9.3982 210.255 8.7951 210.105 8.14175C210.004 7.89046 209.954 7.68943 209.954 7.4884C209.904 7.28737 209.854 7.08634 209.854 6.88531C209.804 7.08634 209.754 7.28737 209.704 7.4884C209.654 7.68943 209.603 7.94072 209.553 8.14175C209.503 8.24227 209.503 8.29253 209.503 8.34278C209.503 8.39304 209.503 8.49356 209.453 8.54381C209.353 9.14691 209.202 9.69974 209.052 10.2526C208.902 10.8054 208.751 11.3582 208.601 11.9111L204.842 24.2242H214.916L211.107 11.9111Z" fill="white"/>
</svg>

<svg width="229" height="39" fill="none" xmlns="http://www.w3.org/2000/svg"><path d="M27.32 26.64c0 .25-.05.45-.05.65-.26 2.01-.9 3.97-1.96 5.78a11.46 11.46 0 01-4.26 4.22c-.65.3-1.35.55-2.05.8-.7.2-1.4.4-2.1.56-.61.1-1.16.2-1.76.25-.6.05-1.16.1-1.7.1h-.6c-2.31-.1-4.62-.6-6.88-1.56-2.2-1-4.2-2.26-5.96-3.87l4.66-7.49.1.1.1.1a24.24 24.24 0 003.56 3.22c1.3.96 2.86 1.5 4.56 1.61.05 0 .1 0 .15.05.05 0 .1.05.15.05.05 0 .1 0 .15.05.05 0 .1.05.15.05.15 0 .3 0 .5-.05.15 0 .35-.05.5-.1a4.77 4.77 0 003.06-2.01c.05-.1.1-.15.1-.25.05-.1.1-.15.1-.25.1-.25.15-.5.15-.76.05-.25.05-.45.05-.65 0-1.06-.45-1.96-1.35-2.66-.9-.7-1.9-1.26-2.96-1.66-.45-.15-.85-.3-1.2-.4-.4-.1-.75-.2-1.1-.26-.05 0-.1 0-.1-.05-.05 0-.1-.05-.1-.05-1.9-.45-3.71-1.2-5.37-2.26a8.17 8.17 0 01-3.75-5.68c-.1-.45-.16-.85-.2-1.35-.06-.15-.06-.3-.06-.46v-.45c0-.3 0-.6.05-.95 0-.3.05-.6.15-.96.1-.75.3-1.56.6-2.31.26-.75.6-1.46 1.06-2.11A10.98 10.98 0 018.52 1.2C10.37.45 12.43 0 14.53 0c.5 0 1 .05 1.56.1.5.05 1.05.15 1.6.2 1.4.25 2.8.6 4.16 1.16 1.36.55 2.66 1.2 3.81 1.9l-3.2 7.2a28 28 0 00-3.31-2.07 7.95 7.95 0 00-3.76-.85h-.5c-.9.1-1.7.5-2.51 1.2-.75.7-1.15 1.41-1.15 2.22 0 .1 0 .25.05.35 0 .1.05.25.15.35.1.25.2.5.4.75.2.26.4.46.65.66.45.35 1.05.65 1.85.95.8.3 1.66.56 2.56.86.75.2 1.45.4 2.16.55.7.15 1.3.35 1.75.5a9.08 9.08 0 014.91 3.87c1.1 1.81 1.66 3.72 1.7 5.73v.25c-.04.25-.04.5-.1.76zm30.07 3.11v8.35H34.63V.9H57.4v8.15H44.6v6.48h12.03v7.94H44.6v6.28h12.78zm38.39-1.45a15.79 15.79 0 01-5.16 6.28 16.31 16.31 0 01-5.92 2.56c-2.15.45-4.3.75-6.46.85-.6.06-1.26.06-1.86.06H64.45V.85h12.58a36.98 36.98 0 017.97.9c2.06.46 3.91 1.32 5.62 2.57a15.28 15.28 0 015.06 6.03c1.2 2.52 1.9 5.08 2.05 7.7.05.24.05.44.05.7v1.5c-.15 2.82-.8 5.48-2 8.05zm-8.22-9.2c0-.15 0-.3-.05-.45-.1-1.46-.45-2.92-1.05-4.28a8.44 8.44 0 00-2.56-3.31c-.8-.66-1.7-1.1-2.7-1.36-1-.25-2.01-.35-3.06-.4h-3.76v20.5c.1 0 .25 0 .4.05.15 0 .25.05.4.05.15 0 .3 0 .4.05.1 0 .25.05.35.05.4 0 .8 0 1.2-.05.46 0 .86-.05 1.2-.1 1.01-.1 2.01-.25 2.97-.5.95-.25 1.85-.7 2.6-1.2a7.85 7.85 0 002.76-3.67c.6-1.56.9-3.17.9-4.83v-.55zm54.93 1.96c0 .4-.05.8-.15 1.2-.1.8-.2 1.61-.45 2.42a18.88 18.88 0 01-8.42 11.16 20.93 20.93 0 01-10.88 3.11c-.25 0-.55 0-.8-.05-.25 0-.5-.05-.8-.05a21.3 21.3 0 01-7.67-2.16 18.93 18.93 0 01-7.67-7.34 19.39 19.39 0 01-2.8-9.9c0-.5 0-1 .05-1.5.05-.51.1-1.06.25-1.57.2-1 .45-2 .8-3.06.35-1 .75-2.01 1.3-2.97a18.44 18.44 0 017.47-7.59A20.26 20.26 0 01124.1.2c.5.05.95.1 1.4.1a21.14 21.14 0 018.32 3.02 18.33 18.33 0 016.42 7.13 20.36 20.36 0 012.25 9.3v1.3zm-10.12-2.11c0-.25-.05-.46-.05-.7-.2-1.66-.7-3.27-1.5-4.83a9 9 0 00-3.36-3.62c-.4-.2-.76-.35-1.16-.5-.4-.15-.75-.3-1.15-.4-.4-.1-.75-.16-1.15-.2a8.87 8.87 0 00-6.62 1.76 9.88 9.88 0 00-3.5 4.97c-.06.1-.06.15-.1.25 0 .1-.06.15-.06.25l-.3 1.06c-.1.35-.15.75-.25 1.15-.05.25-.05.56-.1.8 0 .26-.05.51-.05.81v.45c0 .15 0 .3.05.46.1 2.06.75 4.02 1.9 5.88a8.08 8.08 0 004.77 3.66c.25.1.45.16.7.2l.75.16c.25.05.45.05.7.1.25 0 .45.05.7.05 2.06 0 3.91-.6 5.57-1.86a9.9 9.9 0 003.86-6.13c.1-.46.15-.86.2-1.31.05-.25.05-.55.1-.8 0-.26.05-.5.05-.76v-.9zm43.85 19.15l-14.08-19.2c-.4-.46-.75-1-1.1-1.66-.35-.65-.7-1.3-1-2.01-.26-.5-.46-1-.66-1.51a18 18 0 00-.6-1.36 42.83 42.83 0 01.6 7.4V38.1h-9.77V.9h9.77L173.37 20c.35.56.7 1.1 1 1.71.35.6.65 1.2.95 1.86.25.5.45 1 .7 1.5.25.51.45 1.01.7 1.47l-.15-1.21-.15-1.2a18.2 18.2 0 01-.15-2.42c-.05-.8-.05-1.66-.05-2.51V.95h9.73v37.2h-9.73v-.05zm42.66 0l-1.86-6.69H202.7l-1.9 6.74h-10.03L203.49.95h12.63L229 38.15h-10.12v-.05zM211.1 11.9c-.2-.6-.4-1.2-.55-1.86l-.46-1.9c-.1-.26-.15-.46-.15-.66-.05-.2-.1-.4-.1-.6l-.15.6-.15.65c-.05.1-.05.15-.05.2 0 .05 0 .15-.05.2-.1.6-.25 1.16-.4 1.71l-.45 1.66-3.76 12.31h10.08l-3.81-12.3z" fill="#fff"/></svg>
